src/topics/icons/google-wallet.svg

<svg height="273" preserveAspectRatio="xMidYMid" viewBox="0 0 256 273" width="256" xmlns="http://www.w3.org/2000/svg"><path d="m99.6205714 122.294857c-15.5062857-21.357714-37.0102857-40.0822856-61.44-53.1017141-3.6571428-2.048-7.8994285-3.072-12.1417143-3.072-9.5085714 0-18.13942853 5.12-22.67428567 13.6045714-6.72914286 12.4342857-1.90171429 28.0868567 10.53257147 34.6697147 37.5954285 20.187428 61.8788571 58.514285 64.8045714 102.985142v-.146285c-.4388572-4.973715.4388571-9.801143 2.6331428-14.336.2925715-.585143.7314286-1.316572 1.1702858-2.048 11.7028571-19.309715 17.9931431-41.545143 17.9931431-64.365715 0-4.827428-.438857-9.508571-.8777146-14.189714" fill="#1476c6"/><path d="m248.539429 74.0205714c-4.534858-19.8948571-11.264-39.2045714-20.041143-57.6365714-4.681143-9.80114286-14.774857-16.23771429-25.6-16.23771429-4.242286 0-8.338286.87771429-12.141715 2.77942858-14.189714 6.72914285-20.187428 23.69828571-13.458285 37.74171431 14.336 30.4274285 21.504 62.4640004 21.504 95.8171424 0 33.353143-7.168 65.389715-21.211429 95.232-.146286.438858-2.633143 5.705143-2.633143 11.849143 0 1.755429.146286 4.242286.731429 6.582857 1.901714 8.045715 7.021714 15.36 15.506286 19.309715 3.803428 1.755428 7.899428 2.779428 12.141714 2.779428 10.386286 0 19.894857-5.705143 24.868571-14.774857 5.705143-10.678857 11.410286-24.576 16.384-42.569143 1.609143-5.412571 2.925715-10.532571 4.096-15.945143 4.534857-20.333714 7.021715-41.106285 7.021715-62.464-.146286-21.065142-2.633143-42.276571-7.168-62.4639996" fill="#47ae33"/><path d="m128.731429 44.3245714c-.438858-.8777143-1.024-1.6091428-1.609143-2.3405714-1.901715-2.4868571-4.096-4.5348571-6.729143-6.144-4.242286-2.7794286-9.362286-4.3885714-14.628572-4.3885714-4.388571 0-6.5828567.5851428-9.6548567 1.7554285-3.2182857 1.3165715-6.5828572 3.072-9.6548572 6.2902858-3.072 3.2182857-4.8274285 6.4365714-6.144 9.9474285-2.6331428 6.8754286-2.1942857 15.7988572 2.1942858 23.1131429 9.3622857 15.0674286 14.9211428 32.3291427 16.9691428 50.0297147.5851433 4.681142.8777143 9.508571.8777143 14.189714 0 22.820571-6.144 45.056-17.9931429 64.365714-.4388571.731429-.7314285 1.316572-1.1702857 2.048-2.3405714 4.534857-3.072 9.654857-2.6331428 14.482286.7314285 8.192 5.2662857 15.945143 12.8731428 20.626286 1.9017143 1.170285 4.096 2.048 6.144 2.779428 2.4868576.731429 5.1199996 1.170286 7.7531426 1.170286 9.508572 0 18.139429-4.827429 23.113143-13.019429 14.921143-24.429714 23.552-52.224 25.453714-80.749714.292572-3.803429.438858-7.753143.438858-11.556571.146285-33.060572-8.777143-64.9508576-25.6-92.5988576" fill="#ed114c"/><path d="m177.444571 231.716571c14.189715-29.842285 21.357715-61.878857 21.357715-95.232 0-11.410285-.731429-19.748571-1.316572-25.161142-18.578285-29.6960004-45.494857-56.3200004-77.092571-75.6297147 0 0 .731428.4388571.731428.5851428 2.194286 1.6091429 3.949715 3.2182858 5.997715 5.7051429.438857.5851429 1.170285 1.4628571 1.609143 2.3405714 16.822857 27.7942857 25.6 59.5382856 25.6 92.1599996 0 3.949715-.146286 7.753143-.438858 11.556572 13.458286 25.6 20.772572 54.710857 20.772572 85.284571v9.216c.146286-3.218285.877714-6.582857 2.048-9.508571.438857-.438857.585143-.877714.731428-1.316572" fill="#fbbf16"/></svg>

<?xml version="1.0" encoding="UTF-8"?>
<svg width="256px" height="273px" viewBox="0 0 256 273" version="1.1" xmlns="http://www.w3.org/2000/svg" xmlns:xlink="http://www.w3.org/1999/xlink" preserveAspectRatio="xMidYMid">
		<g>
				<path d="M99.6205714,122.294857 C84.1142857,100.937143 62.6102857,82.2125714 38.1805714,69.1931429 C34.5234286,67.1451429 30.2811429,66.1211429 26.0388571,66.1211429 C16.5302857,66.1211429 7.89942857,71.2411429 3.36457143,79.7257143 C-3.36457143,92.16 1.46285714,107.812571 13.8971429,114.395429 C51.4925714,134.582857 75.776,172.909714 78.7017143,217.380571 C78.7017143,217.380571 78.7017143,217.234286 78.7017143,217.234286 C78.2628571,212.260571 79.1405714,207.433143 81.3348571,202.898286 C81.6274286,202.313143 82.0662857,201.581714 82.5051429,200.850286 C94.208,181.540571 100.498286,159.305143 100.498286,136.484571 C100.498286,131.657143 100.059429,126.976 99.6205714,122.294857" fill="#1476C6"></path>
				<path d="M248.539429,74.0205714 C244.004571,54.1257143 237.275429,34.816 228.498286,16.384 C223.817143,6.58285714 213.723429,0.146285714 202.898286,0.146285714 C198.656,0.146285714 194.56,1.024 190.756571,2.92571429 C176.566857,9.65485714 170.569143,26.624 177.298286,40.6674286 C191.634286,71.0948571 198.802286,103.131429 198.802286,136.484571 C198.802286,169.837714 191.634286,201.874286 177.590857,231.716571 C177.444571,232.155429 174.957714,237.421714 174.957714,243.565714 C174.957714,245.321143 175.104,247.808 175.689143,250.148571 C177.590857,258.194286 182.710857,265.508571 191.195429,269.458286 C194.998857,271.213714 199.094857,272.237714 203.337143,272.237714 C213.723429,272.237714 223.232,266.532571 228.205714,257.462857 C233.910857,246.784 239.616,232.886857 244.589714,214.893714 C246.198857,209.481143 247.515429,204.361143 248.685714,198.948571 C253.220571,178.614857 255.707429,157.842286 255.707429,136.484571 C255.561143,115.419429 253.074286,94.208 248.539429,74.0205714" fill="#47AE33"></path>
				<path d="M128.731429,44.3245714 C128.292571,43.4468571 127.707429,42.7154286 127.122286,41.984 C125.220571,39.4971429 123.026286,37.4491429 120.393143,35.84 C116.150857,33.0605714 111.030857,31.4514286 105.764571,31.4514286 C101.376,31.4514286 99.1817143,32.0365714 96.1097143,33.2068571 C92.8914286,34.5234286 89.5268571,36.2788571 86.4548571,39.4971429 C83.3828571,42.7154286 81.6274286,45.9337143 80.3108571,49.4445714 C77.6777143,56.32 78.1165714,65.2434286 82.5051429,72.5577143 C91.8674286,87.6251429 97.4262857,104.886857 99.4742857,122.587429 C100.059429,127.268571 100.352,132.096 100.352,136.777143 C100.352,159.597714 94.208,181.833143 82.3588571,201.142857 C81.92,201.874286 81.6274286,202.459429 81.1885714,203.190857 C78.848,207.725714 78.1165714,212.845714 78.5554286,217.673143 C79.2868571,225.865143 83.8217143,233.618286 91.4285714,238.299429 C93.3302857,239.469714 95.5245714,240.347429 97.5725714,241.078857 C100.059429,241.810286 102.692571,242.249143 105.325714,242.249143 C114.834286,242.249143 123.465143,237.421714 128.438857,229.229714 C143.36,204.8 151.990857,177.005714 153.892571,148.48 C154.185143,144.676571 154.331429,140.726857 154.331429,136.923429 C154.477714,103.862857 145.554286,71.9725714 128.731429,44.3245714" fill="#ED114C"></path>
				<path d="M177.444571,231.716571 C191.634286,201.874286 198.802286,169.837714 198.802286,136.484571 C198.802286,125.074286 198.070857,116.736 197.485714,111.323429 C178.907429,81.6274286 151.990857,55.0034286 120.393143,35.6937143 C120.393143,35.6937143 121.124571,36.1325714 121.124571,36.2788571 C123.318857,37.888 125.074286,39.4971429 127.122286,41.984 C127.561143,42.5691429 128.292571,43.4468571 128.731429,44.3245714 C145.554286,72.1188571 154.331429,103.862857 154.331429,136.484571 C154.331429,140.434286 154.185143,144.237714 153.892571,148.041143 C167.350857,173.641143 174.665143,202.752 174.665143,233.325714 C174.665143,235.812571 174.665143,239.616 174.665143,242.541714 C174.811429,239.323429 175.542857,235.958857 176.713143,233.033143 C177.152,232.594286 177.298286,232.155429 177.444571,231.716571" fill="#FBBF16"></path>
		</g>
</svg>
